ow_themes/pneuma/images/ic_video.svg

<svg xmlns="http://www.w3.org/2000/svg" width="20" height="20" viewBox="0 0 20 20" enable-background="new 0 0 20 20"><path fill="#a2acb3" d="m17 17v-2h1v-10h-1v-2h1v-1h-16v1h2v2h-2v10h2v2h-2v1h16v-1h-1m-6-14h2v2h-2v-2m-3 0h2v2h-2v-2m-1 14h-2v-2h2v2m0-12h-2v-2h2v2m3 12h-2v-2h2v2m3 0h-2v-2h2v2m-5-3.91v-6.09l5.273 3.045-5.273 3.045m8 3.91h-2v-2h2v2m0-12h-2v-2h2v2"/></svg>

<svg xmlns="http://www.w3.org/2000/svg" viewBox="0 0 20 20"><path fill="#a2acb3" d="M17 17v-2h1V5h-1V3h1V2H2v1h2v2H2v10h2v2H2v1h16v-1h-1M11 3h2v2h-2V3M8 3h2v2H8V3M7 17H5v-2h2v2M7 5H5V3h2v2m3 12H8v-2h2v2m3 0h-2v-2h2v2m-5-3.91V7l5.27 3.04L8 13.1m8 3.9h-2v-2h2v2m0-12h-2V3h2v2"/></svg>
